exports/fossil-fuel-price-index_v2_850x600.svg

<svg xmlns="http://www.w3.org/2000/svg" version="1.1" style="background-color:#fff;-webkit-font-smoothing:antialiased" width="850" height="600" font-family="'Helvetica Neue',Helvetica,Arial,sans-serif" font-size="18" text-rendering="optimizeLegibility"><g class="ChartTab"><g class="HeaderView"><g opacity=".8" transform="matrix(.31 0 0 .31 770 15)"><a xmlns:xlink="http://www.w3.org/1999/xlink" xlink:href="https://ourworldindata.org" target="_blank"><g><path fill="#1B2543" d="M0 0h211.2v130.1H0z"/><path fill="#E63912" d="M0 112.2h211.2v17.9H0z"/><g><path fill="none" d="M1.2 12.3h210.2v99.2H1.2z"/><path fill="#FFF" d="M37.8 32.2c0 12.7-7.7 19.4-17.1 19.4-9.7 0-16.6-7.5-16.6-18.7 0-11.7 7.3-19.3 17.1-19.3 10.1.1 16.6 7.7 16.6 18.6zm-28.6.6c0 7.9 4.3 14.9 11.8 14.9 7.5 0 11.8-6.9 11.8-15.3 0-7.3-3.8-14.9-11.8-14.9-7.9 0-11.8 7.3-11.8 15.3zM62.7 43.8c0 2.7.1 5.1.2 7.2h-4.3l-.3-4.3h-.1c-1.3 2.1-4 4.9-8.8 4.9-4.2 0-9.1-2.3-9.1-11.6V24.6h4.8v14.6c0 5 1.5 8.4 5.9 8.4 3.2 0 5.5-2.2 6.3-4.4.3-.7.4-1.6.4-2.5V24.6h4.8v19.2zM67.3 32.8c0-3.1-.1-5.8-.2-8.2h4.2l.2 5.2h.2c1.2-3.5 4.1-5.8 7.3-5.8.5 0 .9.1 1.4.2v4.5c-.5-.1-1-.2-1.6-.2-3.4 0-5.8 2.6-6.5 6.2-.1.7-.2 1.4-.2 2.2V51h-4.8V32.8zM95.4 51L86 14.2h5l4.4 18.6c1.1 4.6 2.1 9.2 2.7 12.7h.1c.6-3.7 1.8-8 3-12.8l4.9-18.5h5l4.5 18.7c1 4.4 2 8.7 2.6 12.6h.1c.8-4 1.8-8.1 3-12.7l4.9-18.5h4.9L120.6 51h-5L111 31.9c-1.1-4.7-1.9-8.3-2.4-12h-.1c-.7 3.7-1.5 7.3-2.8 12L100.4 51h-5zM154.9 37.6c0 9.8-6.8 14-13.2 14-7.2 0-12.7-5.2-12.7-13.6 0-8.8 5.8-14 13.1-14 7.7 0 12.8 5.5 12.8 13.6zm-21 .3c0 5.8 3.3 10.1 8 10.1 4.6 0 8-4.3 8-10.3 0-4.5-2.2-10.1-7.9-10.1s-8.1 5.2-8.1 10.3zM158.2 32.8c0-3.1-.1-5.8-.2-8.2h4.2l.2 5.2h.2c1.2-3.5 4.1-5.8 7.3-5.8.5 0 .9.1 1.4.2v4.5c-.5-.1-1-.2-1.6-.2-3.4 0-5.8 2.6-6.5 6.2-.1.7-.2 1.4-.2 2.2V51h-4.8V32.8zM173.5 12.3h4.8V51h-4.8V12.3zM206.5 12.3v31.9c0 2.3.1 5 .2 6.8h-4.3l-.2-4.6h-.2c-1.5 2.9-4.7 5.2-9 5.2-6.4 0-11.3-5.4-11.3-13.4-.1-8.8 5.4-14.2 11.9-14.2 4 0 6.8 1.9 8 4h.1V12.3h4.8zm-4.8 23.1c0-.6-.1-1.4-.2-2a7 7 0 00-6.9-5.6c-5 0-7.9 4.4-7.9 10.2 0 5.3 2.6 9.8 7.8 9.8 3.2 0 6.2-2.1 7.1-5.7.2-.7.2-1.3.2-2.1v-4.6zM42.8 64c.1 1.6-1.1 2.9-3.1 2.9-1.7 0-2.9-1.3-2.9-2.9 0-1.7 1.3-3 3-3 1.9 0 3 1.3 3 3zm-5.4 33.8V71.4h4.8v26.4h-4.8zM47.5 78.6c0-2.7-.1-5-.2-7.1h4.3l.3 4.4h.1c1.3-2.5 4.4-5 8.8-5 3.7 0 9.4 2.2 9.4 11.2v15.8h-4.8V82.6c0-4.3-1.6-7.8-6.1-7.8-3.2 0-5.6 2.2-6.5 4.9-.2.6-.3 1.4-.3 2.2v15.9h-4.8V78.6zM84 61.6c2.9-.4 6.3-.8 10.1-.8 6.8 0 11.7 1.6 14.9 4.6 3.3 3 5.2 7.3 5.2 13.2 0 6-1.9 10.9-5.3 14.3-3.4 3.4-9.1 5.3-16.3 5.3-3.4 0-6.2-.2-8.6-.4V61.6zm4.8 32.5c1.2.2 3 .3 4.8.3 10.2 0 15.7-5.7 15.7-15.6.1-8.7-4.9-14.2-14.9-14.2-2.5 0-4.3.2-5.6.5v29zM132.1 97.8l-.4-3.3h-.2a9.79 9.79 0 01-8.1 3.9c-5.4 0-8.1-3.8-8.1-7.6 0-6.4 5.7-9.9 15.9-9.8v-.5c0-2.2-.6-6.1-6-6.1-2.5 0-5 .8-6.9 2l-1.1-3.2c2.2-1.4 5.4-2.3 8.7-2.3 8.1 0 10.1 5.5 10.1 10.8v9.9c0 2.3.1 4.5.4 6.3h-4.3zm-.7-13.4c-5.3-.1-11.2.8-11.2 5.9 0 3.1 2.1 4.6 4.5 4.6 3.4 0 5.6-2.2 6.4-4.4.2-.5.3-1 .3-1.5v-4.6zM146.6 63.9v7.6h6.9v3.7h-6.9v14.2c0 3.3.9 5.1 3.6 5.1 1.3 0 2.2-.2 2.8-.3l.2 3.6c-.9.4-2.4.7-4.3.7-2.2 0-4-.7-5.2-2-1.4-1.4-1.9-3.8-1.9-6.9V75.1h-4.1v-3.7h4.1v-6.3l4.8-1.2zM171.4 97.8l-.4-3.3h-.2a9.79 9.79 0 01-8.1 3.9c-5.4 0-8.1-3.8-8.1-7.6 0-6.4 5.7-9.9 15.9-9.8v-.5c0-2.2-.6-6.1-6-6.1-2.5 0-5 .8-6.9 2l-1.1-3.2c2.2-1.4 5.4-2.3 8.7-2.3 8.1 0 10.1 5.5 10.1 10.8v9.9c0 2.3.1 4.5.4 6.3h-4.3zm-.7-13.4c-5.3-.1-11.2.8-11.2 5.9 0 3.1 2.1 4.6 4.5 4.6 3.4 0 5.6-2.2 6.4-4.4.2-.5.3-1 .3-1.5v-4.6z"/></g></g></a></g><a href="https://ourworldindata.org/grapher/fossil-fuel-price-index" target="_blank"><text font-size="27" x="15" y="36.6" fill="#555"><tspan x="15" y="36.6">Fossil fuel price index</tspan></text></a><text font-size="14.4" x="15" y="55.5" fill="#666"><tspan x="15" y="55.52">Average global prices of oil, natural gas and coal, measured as an energy index where prices in 2000=100.</tspan></text></g><g class="LineChart"><defs><clipPath id="a"><path d="M37.22 0h830v956.2h-830z"/></clipPath></defs><g class="AxisBoxView"><g class="HorizontalAxis" fill="#666" text-anchor="middle" font-size="16.2"><text x="47.2" y="556.5">1987</text><text x="120.7" y="556.5">1990</text><text x="243.1" y="556.5">1995</text><text x="365.6" y="556.5">2000</text><text x="488.1" y="556.5">2005</text><text x="610.5" y="556.5">2010</text><text x="733" y="556.5">2015</text></g><g class="VerticalAxis" fill="#666" dominant-baseline="middle" text-anchor="end" font-size="16.2"><text x="42.22" y="535.3">0</text><text x="42.22" y="479.6">50</text><text x="42.22" y="423.9">100</text><text x="42.22" y="368.3">150</text><text x="42.22" y="312.6">200</text><text x="42.22" y="256.9">250</text><text x="42.22" y="201.2">300</text><text x="42.22" y="145.6">350</text><text x="42.22" y="89.9">400</text></g><g class="AxisGridLines"><path stroke="#ccc" d="M47.22 535.3h685.74"/><path stroke="#ddd" stroke-dasharray="3,2" d="M47.22 479.6h685.74M47.22 423.9h685.74M47.22 368.3h685.74M47.22 312.6h685.74M47.22 256.9h685.74M47.22 201.2h685.74M47.22 145.6h685.74M47.22 89.9h685.74"/></g><g class="AxisGridLines" stroke="#ddd" stroke-dasharray="3,2"><path d="M120.7 535.3V78.4M243.1 535.3V78.4M365.6 535.3V78.4M488.1 535.3V78.4M610.5 535.3V78.4M733 535.3V78.4"/></g></g><g clip-path="url(#a)"><g class="HeightedLegend clickable"><g class="legendMark"><path fill="#34983f" d="M742.96 358.85h10v2.5h-10z"/><text font-size="14.4" x="758" y="364.4" fill="#333"><tspan x="757.96" y="364.42">Coal</tspan></text></g><g class="legendMark"><path fill="#ca2628" d="M742.96 385.35h10v2.5h-10z"/><text font-size="14.4" x="758" y="390.9" fill="#333"><tspan x="757.96" y="390.92">Oil</tspan></text></g><g class="legendMark"><path fill="#3360a9" d="M742.96 465.45h10v2.5h-10z"/><text font-size="14.4" x="758" y="471" fill="#333"><tspan x="757.96" y="471.02">Natural Gas</tspan></text></g></g><g class="Lines"><g class="key-World_0"><path stroke="#3360a9" stroke-linecap="round" d="M96 491l25 1 24 4 25-7 24-10 25 6 24 6 25-28 24 6 25 11 24-4 25-52 24 4 25 20 24-61 25-6 24-77 25 53 24-5 25-50 24 131 25-13 24 10 25 33 24-25 25-17 24 46" fill="none" stroke-width="1.5"/><g fill="#3360a9"><circle cx="96" cy="491" r="2"/><circle cx="121" cy="492" r="2"/><circle cx="145" cy="496" r="2"/><circle cx="170" cy="489" r="2"/><circle cx="194" cy="479" r="2"/><circle cx="219" cy="485" r="2"/><circle cx="243" cy="491" r="2"/><circle cx="268" cy="463" r="2"/><circle cx="292" cy="469" r="2"/><circle cx="317" cy="480" r="2"/><circle cx="341" cy="476" r="2"/><circle cx="366" cy="424" r="2"/><circle cx="390" cy="428" r="2"/><circle cx="415" cy="448" r="2"/><circle cx="439" cy="387" r="2"/><circle cx="464" cy="381" r="2"/><circle cx="488" cy="304" r="2"/><circle cx="513" cy="357" r="2"/><circle cx="537" cy="352" r="2"/><circle cx="562" cy="302" r="2"/><circle cx="586" cy="433" r="2"/><circle cx="611" cy="420" r="2"/><circle cx="635" cy="430" r="2"/><circle cx="660" cy="463" r="2"/><circle cx="684" cy="438" r="2"/><circle cx="709" cy="421" r="2"/><circle cx="733" cy="467" r="2"/></g></g><g class="key-World_1"><path stroke="#34983f" stroke-linecap="round" d="M47 439l25-27 24-7 25-4 24 2 25 13 24 15 25-11 24-22 25 10 24 7 25 21 24 10 25-22 24-9 25 22 24-37 25-88 24 36 25-11 24-76 25-183 24 239 25-68 24-90 25 90 24 34 25 19 24 58" fill="none" stroke-width="1.5"/><g fill="#34983f"><circle cx="47" cy="439" r="2"/><circle cx="72" cy="412" r="2"/><circle cx="96" cy="405" r="2"/><circle cx="121" cy="401" r="2"/><circle cx="145" cy="403" r="2"/><circle cx="170" cy="416" r="2"/><circle cx="194" cy="431" r="2"/><circle cx="219" cy="420" r="2"/><circle cx="243" cy="398" r="2"/><circle cx="268" cy="408" r="2"/><circle cx="292" cy="415" r="2"/><circle cx="317" cy="436" r="2"/><circle cx="341" cy="446" r="2"/><circle cx="366" cy="424" r="2"/><circle cx="390" cy="415" r="2"/><circle cx="415" cy="437" r="2"/><circle cx="439" cy="400" r="2"/><circle cx="464" cy="312" r="2"/><circle cx="488" cy="348" r="2"/><circle cx="513" cy="337" r="2"/><circle cx="537" cy="261" r="2"/><circle cx="562" cy="78" r="2"/><circle cx="586" cy="317" r="2"/><circle cx="611" cy="249" r="2"/><circle cx="635" cy="159" r="2"/><circle cx="660" cy="249" r="2"/><circle cx="684" cy="283" r="2"/><circle cx="709" cy="302" r="2"/><circle cx="733" cy="360" r="2"/></g></g><g class="key-World_2"><path stroke="#ca2628" stroke-linecap="round" d="M47 426l25 24 24-14 25-23 24 24 25 6 24 13 25 8 24-4 25-13 24 8 25 28 24-20 25-39 24 18h25l24-12 25-31 24-52 25-29 24-18 25-69 24 111 25-52 24-87 25 5 24 13 25 33 24 133" fill="none" stroke-width="1.5"/><g fill="#ca2628"><circle cx="47" cy="426" r="2"/><circle cx="72" cy="450" r="2"/><circle cx="96" cy="436" r="2"/><circle cx="121" cy="413" r="2"/><circle cx="145" cy="437" r="2"/><circle cx="170" cy="443" r="2"/><circle cx="194" cy="456" r="2"/><circle cx="219" cy="464" r="2"/><circle cx="243" cy="460" r="2"/><circle cx="268" cy="447" r="2"/><circle cx="292" cy="455" r="2"/><circle cx="317" cy="483" r="2"/><circle cx="341" cy="463" r="2"/><circle cx="366" cy="424" r="2"/><circle cx="390" cy="442" r="2"/><circle cx="415" cy="442" r="2"/><circle cx="439" cy="430" r="2"/><circle cx="464" cy="399" r="2"/><circle cx="488" cy="347" r="2"/><circle cx="513" cy="318" r="2"/><circle cx="537" cy="300" r="2"/><circle cx="562" cy="231" r="2"/><circle cx="586" cy="342" r="2"/><circle cx="611" cy="290" r="2"/><circle cx="635" cy="203" r="2"/><circle cx="660" cy="208" r="2"/><circle cx="684" cy="221" r="2"/><circle cx="709" cy="254" r="2"/><circle cx="733" cy="387" r="2"/></g></g></g></g></g><g class="SourcesFooter" fill="#777"><g class="clickable" fill="#777"><text font-size="12.6" x="15" y="581.6"><tspan x="15" y="581.58">Source: BP Statistical Review 2016</tspan></text></g><text font-size="12.6" x="585.9" y="581.6"><tspan x="585.9" y="581.58"><a target="_blank" href="https://ourworldindata.org/fossil-fuels" fill="#777">OurWorldInData.org/fossil-fuels</a> • <a href="http://creativecommons.org/licenses/by-sa/4.0/deed.en_US" target="_blank" fill="#777">CC BY-SA</a></tspan></text></g></g></svg>

<svg xmlns="http://www.w3.org/2000/svg" version="1.1" style="font-family: 'Helvetica Neue', Helvetica, Arial, sans-serif; font-size: 18px; background-color: white; text-rendering: optimizeLegibility; -webkit-font-smoothing: antialiased;" width="850" height="600"><g class="ChartTab"><g class="HeaderView"><g opacity="0.8" transform="translate(770, 15) scale(0.31)"><a xmlns:xlink="http://www.w3.org/1999/xlink" xlink:href="https://ourworldindata.org" target="_blank"><g><rect x="0" y="0" fill="#1B2543" width="211.2" height="130.1"/><rect x="0" y="112.2" fill="#E63912" width="211.2" height="17.9"/><g><rect x="1.2" y="12.3" fill="none" width="210.2" height="99.2"/><path fill="#FFFFFF" d="M37.8,32.2c0,12.7-7.7,19.4-17.1,19.4c-9.7,0-16.6-7.5-16.6-18.7c0-11.7,7.3-19.3,17.1-19.3 C31.3,13.7,37.8,21.3,37.8,32.2z M9.2,32.8c0,7.9,4.3,14.9,11.8,14.9c7.5,0,11.8-6.9,11.8-15.3c0-7.3-3.8-14.9-11.8-14.9 C13.1,17.5,9.2,24.8,9.2,32.8z"/><path fill="#FFFFFF" d="M62.7,43.8c0,2.7,0.1,5.1,0.2,7.2h-4.3l-0.3-4.3h-0.1c-1.3,2.1-4,4.9-8.8,4.9c-4.2,0-9.1-2.3-9.1-11.6 V24.6h4.8v14.6c0,5,1.5,8.4,5.9,8.4c3.2,0,5.5-2.2,6.3-4.4c0.3-0.7,0.4-1.6,0.4-2.5V24.6h4.8V43.8z"/><path fill="#FFFFFF" d="M67.3,32.8c0-3.1-0.1-5.8-0.2-8.2h4.2l0.2,5.2h0.2c1.2-3.5,4.1-5.8,7.3-5.8c0.5,0,0.9,0.1,1.4,0.2v4.5 c-0.5-0.1-1-0.2-1.6-0.2c-3.4,0-5.8,2.6-6.5,6.2c-0.1,0.7-0.2,1.4-0.2,2.2V51h-4.8V32.8z"/><path fill="#FFFFFF" d="M95.4,51l-9.4-36.8h5l4.4,18.6c1.1,4.6,2.1,9.2,2.7,12.7h0.1c0.6-3.7,1.8-8,3-12.8l4.9-18.5h5l4.5,18.7 c1,4.4,2,8.7,2.6,12.6h0.1c0.8-4,1.8-8.1,3-12.7l4.9-18.5h4.9L120.6,51h-5L111,31.9c-1.1-4.7-1.9-8.3-2.4-12h-0.1 c-0.7,3.7-1.5,7.3-2.8,12L100.4,51H95.4z"/><path fill="#FFFFFF" d="M154.9,37.6c0,9.8-6.8,14-13.2,14c-7.2,0-12.7-5.2-12.7-13.6c0-8.8,5.8-14,13.1-14 C149.8,24,154.9,29.5,154.9,37.6z M133.9,37.9c0,5.8,3.3,10.1,8,10.1c4.6,0,8-4.3,8-10.3c0-4.5-2.2-10.1-7.9-10.1 C136.3,27.6,133.9,32.8,133.9,37.9z"/><path fill="#FFFFFF" d="M158.2,32.8c0-3.1-0.1-5.8-0.2-8.2h4.2l0.2,5.2h0.2c1.2-3.5,4.1-5.8,7.3-5.8c0.5,0,0.9,0.1,1.4,0.2v4.5 c-0.5-0.1-1-0.2-1.6-0.2c-3.4,0-5.8,2.6-6.5,6.2c-0.1,0.7-0.2,1.4-0.2,2.2V51h-4.8V32.8z"/><path fill="#FFFFFF" d="M173.5,12.3h4.8V51h-4.8V12.3z"/><path fill="#FFFFFF" d="M206.5,12.3v31.9c0,2.3,0.1,5,0.2,6.8h-4.3l-0.2-4.6H202c-1.5,2.9-4.7,5.2-9,5.2 c-6.4,0-11.3-5.4-11.3-13.4c-0.1-8.8,5.4-14.2,11.9-14.2c4,0,6.8,1.9,8,4h0.1V12.3H206.5z M201.7,35.4c0-0.6-0.1-1.4-0.2-2 c-0.7-3.1-3.3-5.6-6.9-5.6c-5,0-7.9,4.4-7.9,10.2c0,5.3,2.6,9.8,7.8,9.8c3.2,0,6.2-2.1,7.1-5.7c0.2-0.7,0.2-1.3,0.2-2.1V35.4z"/><path fill="#FFFFFF" d="M42.8,64c0.1,1.6-1.1,2.9-3.1,2.9c-1.7,0-2.9-1.3-2.9-2.9c0-1.7,1.3-3,3-3C41.7,61,42.8,62.3,42.8,64z M37.4,97.8V71.4h4.8v26.4H37.4z"/><path fill="#FFFFFF" d="M47.5,78.6c0-2.7-0.1-5-0.2-7.1h4.3l0.3,4.4h0.1c1.3-2.5,4.4-5,8.8-5c3.7,0,9.4,2.2,9.4,11.2v15.8h-4.8 V82.6c0-4.3-1.6-7.8-6.1-7.8c-3.2,0-5.6,2.2-6.5,4.9c-0.2,0.6-0.3,1.4-0.3,2.2v15.9h-4.8V78.6z"/><path fill="#FFFFFF" d="M84,61.6c2.9-0.4,6.3-0.8,10.1-0.8c6.8,0,11.7,1.6,14.9,4.6c3.3,3,5.2,7.3,5.2,13.2c0,6-1.9,10.9-5.3,14.3 c-3.4,3.4-9.1,5.3-16.3,5.3c-3.4,0-6.2-0.2-8.6-0.4V61.6z M88.8,94.1c1.2,0.2,3,0.3,4.8,0.3c10.2,0,15.7-5.7,15.7-15.6 c0.1-8.7-4.9-14.2-14.9-14.2c-2.5,0-4.3,0.2-5.6,0.5V94.1z"/><path fill="#FFFFFF" d="M132.1,97.8l-0.4-3.3h-0.2c-1.5,2.1-4.3,3.9-8.1,3.9c-5.4,0-8.1-3.8-8.1-7.6c0-6.4,5.7-9.9,15.9-9.8v-0.5 c0-2.2-0.6-6.1-6-6.1c-2.5,0-5,0.8-6.9,2l-1.1-3.2c2.2-1.4,5.4-2.3,8.7-2.3c8.1,0,10.1,5.5,10.1,10.8v9.9c0,2.3,0.1,4.5,0.4,6.3 H132.1z M131.4,84.4c-5.3-0.1-11.2,0.8-11.2,5.9c0,3.1,2.1,4.6,4.5,4.6c3.4,0,5.6-2.2,6.4-4.4c0.2-0.5,0.3-1,0.3-1.5V84.4z"/><path fill="#FFFFFF" d="M146.6,63.9v7.6h6.9v3.7h-6.9v14.2c0,3.3,0.9,5.1,3.6,5.1c1.3,0,2.2-0.2,2.8-0.3l0.2,3.6 c-0.9,0.4-2.4,0.7-4.3,0.7c-2.2,0-4-0.7-5.2-2c-1.4-1.4-1.9-3.8-1.9-6.9V75.1h-4.1v-3.7h4.1v-6.3L146.6,63.9z"/><path fill="#FFFFFF" d="M171.4,97.8l-0.4-3.3h-0.2c-1.5,2.1-4.3,3.9-8.1,3.9c-5.4,0-8.1-3.8-8.1-7.6c0-6.4,5.7-9.9,15.9-9.8v-0.5 c0-2.2-0.6-6.1-6-6.1c-2.5,0-5,0.8-6.9,2l-1.1-3.2c2.2-1.4,5.4-2.3,8.7-2.3c8.1,0,10.1,5.5,10.1,10.8v9.9c0,2.3,0.1,4.5,0.4,6.3 H171.4z M170.7,84.4c-5.3-0.1-11.2,0.8-11.2,5.9c0,3.1,2.1,4.6,4.5,4.6c3.4,0,5.6-2.2,6.4-4.4c0.2-0.5,0.3-1,0.3-1.5V84.4z"/></g></g></a></g><a href="https://ourworldindata.org/grapher/fossil-fuel-price-index" target="_blank"><text font-size="27.00" x="15.0" y="36.6" fill="#555"><tspan x="15" y="36.6">Fossil fuel price index</tspan></text></a><text font-size="14.40" x="15.0" y="55.5" fill="#666"><tspan x="15" y="55.519999999999996">Average global prices of oil, natural gas and coal, measured as an energy index where prices in 2000=100.</tspan></text></g><g class="LineChart"><defs><clipPath id="boundsClip-4"><rect x="37.216" y="0" width="830" height="956.2"></rect></clipPath></defs><g class="AxisBoxView"><g class="HorizontalAxis"><text x="47.2" y="556.5" fill="#666" text-anchor="middle" font-size="16.2">1987</text><text x="120.7" y="556.5" fill="#666" text-anchor="middle" font-size="16.2">1990</text><text x="243.1" y="556.5" fill="#666" text-anchor="middle" font-size="16.2">1995</text><text x="365.6" y="556.5" fill="#666" text-anchor="middle" font-size="16.2">2000</text><text x="488.1" y="556.5" fill="#666" text-anchor="middle" font-size="16.2">2005</text><text x="610.5" y="556.5" fill="#666" text-anchor="middle" font-size="16.2">2010</text><text x="733" y="556.5" fill="#666" text-anchor="middle" font-size="16.2">2015</text></g><g class="VerticalAxis"><text x="42.22" y="535.3" fill="#666" dominant-baseline="middle" text-anchor="end" font-size="16.2">0</text><text x="42.22" y="479.6" fill="#666" dominant-baseline="middle" text-anchor="end" font-size="16.2">50</text><text x="42.22" y="423.9" fill="#666" dominant-baseline="middle" text-anchor="end" font-size="16.2">100</text><text x="42.22" y="368.3" fill="#666" dominant-baseline="middle" text-anchor="end" font-size="16.2">150</text><text x="42.22" y="312.6" fill="#666" dominant-baseline="middle" text-anchor="end" font-size="16.2">200</text><text x="42.22" y="256.9" fill="#666" dominant-baseline="middle" text-anchor="end" font-size="16.2">250</text><text x="42.22" y="201.2" fill="#666" dominant-baseline="middle" text-anchor="end" font-size="16.2">300</text><text x="42.22" y="145.6" fill="#666" dominant-baseline="middle" text-anchor="end" font-size="16.2">350</text><text x="42.22" y="89.9" fill="#666" dominant-baseline="middle" text-anchor="end" font-size="16.2">400</text></g><g class="AxisGridLines"><line x1="47.22" y1="535.3" x2="732.96" y2="535.3" stroke="#ccc"></line><line x1="47.22" y1="479.6" x2="732.96" y2="479.6" stroke="#ddd" stroke-dasharray="3,2"></line><line x1="47.22" y1="423.9" x2="732.96" y2="423.9" stroke="#ddd" stroke-dasharray="3,2"></line><line x1="47.22" y1="368.3" x2="732.96" y2="368.3" stroke="#ddd" stroke-dasharray="3,2"></line><line x1="47.22" y1="312.6" x2="732.96" y2="312.6" stroke="#ddd" stroke-dasharray="3,2"></line><line x1="47.22" y1="256.9" x2="732.96" y2="256.9" stroke="#ddd" stroke-dasharray="3,2"></line><line x1="47.22" y1="201.2" x2="732.96" y2="201.2" stroke="#ddd" stroke-dasharray="3,2"></line><line x1="47.22" y1="145.6" x2="732.96" y2="145.6" stroke="#ddd" stroke-dasharray="3,2"></line><line x1="47.22" y1="89.9" x2="732.96" y2="89.9" stroke="#ddd" stroke-dasharray="3,2"></line></g><g class="AxisGridLines"><line x1="120.7" y1="535.30" x2="120.7" y2="78.40" stroke="#ddd" stroke-dasharray="3,2"></line><line x1="243.1" y1="535.30" x2="243.1" y2="78.40" stroke="#ddd" stroke-dasharray="3,2"></line><line x1="365.6" y1="535.30" x2="365.6" y2="78.40" stroke="#ddd" stroke-dasharray="3,2"></line><line x1="488.1" y1="535.30" x2="488.1" y2="78.40" stroke="#ddd" stroke-dasharray="3,2"></line><line x1="610.5" y1="535.30" x2="610.5" y2="78.40" stroke="#ddd" stroke-dasharray="3,2"></line><line x1="733" y1="535.30" x2="733" y2="78.40" stroke="#ddd" stroke-dasharray="3,2"></line></g></g><g clip-path="url(#boundsClip-4)"><g class="HeightedLegend clickable"><g class="legendMark"><rect x="742.96" y="352.90000000000003" width="44.664" height="14.4" fill="#fff" opacity="0"></rect><rect x="742.96" y="358.85" width="10" height="2.5" fill="#34983f"></rect><text font-size="14.40" x="758.0" y="364.4" fill="#333"><tspan x="757.96" y="364.42">Coal</tspan></text></g><g class="legendMark"><rect x="742.96" y="379.40000000000003" width="32.568" height="14.4" fill="#fff" opacity="0"></rect><rect x="742.96" y="385.35" width="10" height="2.5" fill="#ca2628"></rect><text font-size="14.40" x="758.0" y="390.9" fill="#333"><tspan x="757.96" y="390.92">Oil</tspan></text></g><g class="legendMark"><rect x="742.96" y="459.5" width="92.04" height="14.4" fill="#fff" opacity="0"></rect><rect x="742.96" y="465.45" width="10" height="2.5" fill="#3360a9"></rect><text font-size="14.40" x="758.0" y="471.0" fill="#333"><tspan x="757.96" y="471.02">Natural Gas</tspan></text></g></g><g class="Lines"><rect x="47" y="78" width="686" height="457" fill="rgba(255,255,255,0)" opacity="0"></rect><g class="key-World_0"><path stroke="#3360a9" stroke-linecap="round" d="M96 491L121 492L145 496L170 489L194 479L219 485L243 491L268 463L292 469L317 480L341 476L366 424L390 428L415 448L439 387L464 381L488 304L513 357L537 352L562 302L586 433L611 420L635 430L660 463L684 438L709 421L733 467" fill="none" stroke-width="1.5"></path><g fill="#3360a9"><circle cx="96" cy="491" r="2"></circle><circle cx="121" cy="492" r="2"></circle><circle cx="145" cy="496" r="2"></circle><circle cx="170" cy="489" r="2"></circle><circle cx="194" cy="479" r="2"></circle><circle cx="219" cy="485" r="2"></circle><circle cx="243" cy="491" r="2"></circle><circle cx="268" cy="463" r="2"></circle><circle cx="292" cy="469" r="2"></circle><circle cx="317" cy="480" r="2"></circle><circle cx="341" cy="476" r="2"></circle><circle cx="366" cy="424" r="2"></circle><circle cx="390" cy="428" r="2"></circle><circle cx="415" cy="448" r="2"></circle><circle cx="439" cy="387" r="2"></circle><circle cx="464" cy="381" r="2"></circle><circle cx="488" cy="304" r="2"></circle><circle cx="513" cy="357" r="2"></circle><circle cx="537" cy="352" r="2"></circle><circle cx="562" cy="302" r="2"></circle><circle cx="586" cy="433" r="2"></circle><circle cx="611" cy="420" r="2"></circle><circle cx="635" cy="430" r="2"></circle><circle cx="660" cy="463" r="2"></circle><circle cx="684" cy="438" r="2"></circle><circle cx="709" cy="421" r="2"></circle><circle cx="733" cy="467" r="2"></circle></g></g><g class="key-World_1"><path stroke="#34983f" stroke-linecap="round" d="M47 439L72 412L96 405L121 401L145 403L170 416L194 431L219 420L243 398L268 408L292 415L317 436L341 446L366 424L390 415L415 437L439 400L464 312L488 348L513 337L537 261L562 78L586 317L611 249L635 159L660 249L684 283L709 302L733 360" fill="none" stroke-width="1.5"></path><g fill="#34983f"><circle cx="47" cy="439" r="2"></circle><circle cx="72" cy="412" r="2"></circle><circle cx="96" cy="405" r="2"></circle><circle cx="121" cy="401" r="2"></circle><circle cx="145" cy="403" r="2"></circle><circle cx="170" cy="416" r="2"></circle><circle cx="194" cy="431" r="2"></circle><circle cx="219" cy="420" r="2"></circle><circle cx="243" cy="398" r="2"></circle><circle cx="268" cy="408" r="2"></circle><circle cx="292" cy="415" r="2"></circle><circle cx="317" cy="436" r="2"></circle><circle cx="341" cy="446" r="2"></circle><circle cx="366" cy="424" r="2"></circle><circle cx="390" cy="415" r="2"></circle><circle cx="415" cy="437" r="2"></circle><circle cx="439" cy="400" r="2"></circle><circle cx="464" cy="312" r="2"></circle><circle cx="488" cy="348" r="2"></circle><circle cx="513" cy="337" r="2"></circle><circle cx="537" cy="261" r="2"></circle><circle cx="562" cy="78" r="2"></circle><circle cx="586" cy="317" r="2"></circle><circle cx="611" cy="249" r="2"></circle><circle cx="635" cy="159" r="2"></circle><circle cx="660" cy="249" r="2"></circle><circle cx="684" cy="283" r="2"></circle><circle cx="709" cy="302" r="2"></circle><circle cx="733" cy="360" r="2"></circle></g></g><g class="key-World_2"><path stroke="#ca2628" stroke-linecap="round" d="M47 426L72 450L96 436L121 413L145 437L170 443L194 456L219 464L243 460L268 447L292 455L317 483L341 463L366 424L390 442L415 442L439 430L464 399L488 347L513 318L537 300L562 231L586 342L611 290L635 203L660 208L684 221L709 254L733 387" fill="none" stroke-width="1.5"></path><g fill="#ca2628"><circle cx="47" cy="426" r="2"></circle><circle cx="72" cy="450" r="2"></circle><circle cx="96" cy="436" r="2"></circle><circle cx="121" cy="413" r="2"></circle><circle cx="145" cy="437" r="2"></circle><circle cx="170" cy="443" r="2"></circle><circle cx="194" cy="456" r="2"></circle><circle cx="219" cy="464" r="2"></circle><circle cx="243" cy="460" r="2"></circle><circle cx="268" cy="447" r="2"></circle><circle cx="292" cy="455" r="2"></circle><circle cx="317" cy="483" r="2"></circle><circle cx="341" cy="463" r="2"></circle><circle cx="366" cy="424" r="2"></circle><circle cx="390" cy="442" r="2"></circle><circle cx="415" cy="442" r="2"></circle><circle cx="439" cy="430" r="2"></circle><circle cx="464" cy="399" r="2"></circle><circle cx="488" cy="347" r="2"></circle><circle cx="513" cy="318" r="2"></circle><circle cx="537" cy="300" r="2"></circle><circle cx="562" cy="231" r="2"></circle><circle cx="586" cy="342" r="2"></circle><circle cx="611" cy="290" r="2"></circle><circle cx="635" cy="203" r="2"></circle><circle cx="660" cy="208" r="2"></circle><circle cx="684" cy="221" r="2"></circle><circle cx="709" cy="254" r="2"></circle><circle cx="733" cy="387" r="2"></circle></g></g></g></g></g><g style="fill: #777;" class="SourcesFooter"><g style="fill: #777;" class="clickable"><text font-size="12.60" x="15.0" y="581.6"><tspan x="15" y="581.58">Source: BP Statistical Review 2016</tspan></text></g><text font-size="12.60" x="585.9" y="581.6"><tspan x="585.898" y="581.58"><a target='_blank' style='fill: #777;' href='https://ourworldindata.org/fossil-fuels'>OurWorldInData.org/fossil-fuels</a> • <a style="fill: #777;" href="http://creativecommons.org/licenses/by-sa/4.0/deed.en_US" target="_blank">CC BY-SA</a></tspan></text></g></g></svg>
